X:1
T:Sonny Brogan's
R:mazurka
M:3/4
L:1/8
K:D
DF|:A2 AG FA|d2 dA BA|G2 GB AG|FA EA DF|
|A2 AG FA|d2 dA BA|G2 Gg fe|1 d4 DF:|2 d4 Ad|]
|:f2 fa gf|e2 eg fe|d2 df ed|ce Be Ad|
|f2 fa gf|e2 eg fe|d2 df ec|1 d4 Ad:|2 d4 DF|]